X: 30
T: It Is Mine, This Country Wide
N: Derived from pawnee30.krn
O: Oklahoma, U.S.A.
N: from Pawnee Music by Frances Densmore, 1926
Z: transcribed to **kern format by David Huron, August 2000
C: Skidi and Chaui Bands, 1919
L: 1/8
M: 2/4
Q: 1/4=88
K: F clef=bass
%%linebreak <none>
F> D (C3/ A,/) [I:setbarnb 2]| 
F4 | 
(3(F D) C (A,3/ F,/) | 
C4[M:3/4] | 
(C/ A,/ A,/ F,/) (A,/ F,/) F, F, F,[M:2/4] | 
(C/ A,/ C/ A,/) A, A, | 
F, F,F,2 | 
F, F, (3F, F, F, | 
F,4 | 
F,4- | 
F,3F, | 
C> B, (G,3/ F,/) | 
C4[M:3/4] | 
(3(A, F,) F, (F,> E,) F, F,[M:2/4] | 
(C/ A,/ C/ A,/) A, A, | 
F, F,F,2 | 
F, F, (3F, F, F, | 
F,4 | 
F,> D, C,3/ A,,/ | 
F,4 | 
(3F, C, C, A,,3/ F,,/ | 
C,4 | 
(3(C, A,, A,,F,,2 | 
F,,4 | 
F,,4[M:3/4] | 
F,6 :|]  



